X:467
M:C|
L:1/8
K:D
gfed dcBA|dfaf bgec|d2 f2 d2:||:A2|dfdf cece|BcdB BAGF|GBGB FAFA|
EFGA GFED|FDFA dfaf|gfed dcBA|dfaf bgec|d2 f2 d2:|

